X:54
T:Maid Behind The Bar, The
S:The Session: https://thesession.org/tunes/64#setting64
S:https://JamBuddy.live 2025
C:Traditional
R:reel
K:D
M:4/4
L:1/8
Q:120
|: FAAB AFED| FAAB ABde| fBBA Bcde| fBBA BcdA|
! FAAB AFED| FAAB ABde| fBBA BcdB| AFEF D4:| ! |:
faab afde| fdad fd d2| efga beef| gebe gfeg|
! fgaf bfaf| defd e2 de| fBBA BcdB| AFEF D4:|

